X: 19070
T: Irish American, The
R: reel
M: 4/4
K: Fmajor
|:c2|fage fcaf|bgeg fdcB|AFcF dFcF|A(G{A}G^F) G2 (3cde|
fage fcaf|bgeg fdcB|ABcd efga|bgeg f2:|
|:fg|afcf Acfg|afcf Acfa|bag^f ~g3 =f|egfd cefg|
afcf Acfg|afbg ecde|fcdB cABG|~F3 G F2:|

